public/sheesh/icons14.svg

<svg fill="none" height="40" viewBox="0 0 40 40" width="40" xmlns="http://www.w3.org/2000/svg" xmlns:xlink="http://www.w3.org/1999/xlink"><linearGradient id="a"><stop offset="0" stop-color="#34c796"/><stop offset="1" stop-color="#0b7a55"/></linearGradient><linearGradient id="b" gradientUnits="userSpaceOnUse" x1="20" x2="20" xlink:href="#a" y1="0" y2="40"/><linearGradient id="c" gradientUnits="userSpaceOnUse" x1="19.9996" x2="19.9996" xlink:href="#a" y1="11.1113" y2="19.5469"/><linearGradient id="d" gradientUnits="userSpaceOnUse" x1="20" x2="20" xlink:href="#a" y1="20.6719" y2="28.8897"/><circle cx="20" cy="20" fill="#151722" r="19" stroke="url(#b)" stroke-width="2"/><path d="m19.9996 11.1113c-2.3289 0-4.2223 1.8934-4.2223 4.2223 0 2.2844 1.7867 4.1333 4.1156 4.2133.0711-.0089.1422-.0089.1956 0h.0444.0178c2.2755-.08 4.0622-1.9289 4.0711-4.2133 0-2.3289-1.8933-4.2223-4.2222-4.2223z" fill="url(#c)"/><path d="m24.5155 21.9119c-2.48-1.6534-6.5244-1.6534-9.0222 0-1.1289.7555-1.7511 1.7778-1.7511 2.8711s.6222 2.1067 1.7422 2.8533c1.2445.8356 2.88 1.2534 4.5156 1.2534 1.6355 0 3.2711-.4178 4.5155-1.2534 1.12-.7555 1.7422-1.7689 1.7422-2.8711-.0088-1.0933-.6222-2.1067-1.7422-2.8533z" fill="url(#d)"/></svg>

<svg width="40" height="40" viewBox="0 0 40 40" fill="none" xmlns="http://www.w3.org/2000/svg">
<circle cx="20" cy="20" r="19" fill="#151722" stroke="url(#paint0_linear_342_13660)" stroke-width="2"/>
<path d="M19.9996 11.1113C17.6707 11.1113 15.7773 13.0047 15.7773 15.3336C15.7773 17.618 17.564 19.4669 19.8929 19.5469C19.964 19.538 20.0351 19.538 20.0885 19.5469C20.1062 19.5469 20.1151 19.5469 20.1329 19.5469C20.1418 19.5469 20.1418 19.5469 20.1507 19.5469C22.4262 19.4669 24.2129 17.618 24.2218 15.3336C24.2218 13.0047 22.3285 11.1113 19.9996 11.1113Z" fill="url(#paint1_linear_342_13660)"/>
<path d="M24.5155 21.9119C22.0355 20.2585 17.9911 20.2585 15.4933 21.9119C14.3644 22.6674 13.7422 23.6897 13.7422 24.783C13.7422 25.8763 14.3644 26.8897 15.4844 27.6363C16.7289 28.4719 18.3644 28.8897 20 28.8897C21.6355 28.8897 23.2711 28.4719 24.5155 27.6363C25.6355 26.8808 26.2577 25.8674 26.2577 24.7652C26.2489 23.6719 25.6355 22.6585 24.5155 21.9119Z" fill="url(#paint2_linear_342_13660)"/>
<defs>
<linearGradient id="paint0_linear_342_13660" x1="20" y1="0" x2="20" y2="40" gradientUnits="userSpaceOnUse">
<stop stop-color="#34C796"/>
<stop offset="1" stop-color="#0B7A55"/>
</linearGradient>
<linearGradient id="paint1_linear_342_13660" x1="19.9996" y1="11.1113" x2="19.9996" y2="19.5469" gradientUnits="userSpaceOnUse">
<stop stop-color="#34C796"/>
<stop offset="1" stop-color="#0B7A55"/>
</linearGradient>
<linearGradient id="paint2_linear_342_13660" x1="20" y1="20.6719" x2="20" y2="28.8897" gradientUnits="userSpaceOnUse">
<stop stop-color="#34C796"/>
<stop offset="1" stop-color="#0B7A55"/>
</linearGradient>
</defs>
</svg>
